svg/fluentui-system-icons/ic_fluent_text_font_20_regular.svg

<svg width="20" height="20" viewBox="0 0 20 20" fill="none" xmlns="http://www.w3.org/2000/svg">
<path d="M6.00059 2C6.2068 2.00001 6.39185 2.12661 6.46658 2.3188L8.89716 8.56965C8.90012 8.57674 8.90291 8.58392 8.90554 8.59118L9.07527 9.0277L8.54852 10.4324L8.09325 9.26151H3.90726L2.96613 11.6812C2.86603 11.9386 2.57625 12.0661 2.31889 11.966C2.06153 11.8659 1.93404 11.5761 2.03414 11.3188L3.09501 8.59113C3.09764 8.58388 3.10043 8.57671 3.10338 8.56961L5.53458 2.31876C5.60932 2.12657 5.79439 1.99999 6.00059 2ZM4.29619 8.26151H7.70441L6.00051 3.87951L4.29619 8.26151ZM12.467 5.32118C12.3927 5.12714 12.2061 4.99928 11.9983 5C11.7906 5.00073 11.6049 5.12988 11.5319 5.32444L7.15357 17L6.50013 17C6.22399 17 6.00013 17.2239 6.00012 17.5C6.00012 17.7761 6.22397 18 6.50011 18L7.49054 18C7.49686 18.0002 7.50316 18.0002 7.50946 18L8.50011 18.0001C8.77625 18.0001 9.00012 17.7762 9.00012 17.5001C9.00013 17.2239 8.77628 17.0001 8.50013 17.0001L8.22156 17.0001L9.34658 14H14.72L15.8687 16.9993L15.5001 16.9993C15.224 16.9993 15.0001 17.2231 15.0001 17.4993C15.0001 17.7754 15.224 17.9993 15.5001 17.9993L17.5001 17.9993C17.7763 17.9993 18.0001 17.7755 18.0001 17.4993C18.0001 17.2232 17.7763 16.9993 17.5001 16.9993L16.9395 16.9993L12.467 5.32118ZM14.337 13H9.72158L12.005 6.91088L14.337 13Z" fill="#212121"/>
</svg>

<svg xmlns="http://www.w3.org/2000/svg" width="20" height="20"><path d="M6 2a.5.5 0 0 1 .467.319l2.43 6.25a.482.482 0 0 1 .009.022l.17.437-.527 1.404-.456-1.17H3.907l-.94 2.42a.5.5 0 1 1-.933-.363L3.095 8.59a.504.504 0 0 1 .008-.021l2.432-6.251A.5.5 0 0 1 6 2ZM4.297 8.262h3.408L6.001 3.88 4.296 8.262Zm8.171-2.94a.5.5 0 0 0-.935.002L7.154 17H6.5a.5.5 0 0 0 0 1h2a.5.5 0 0 0 0-1h-.278l1.125-3h5.373l1.149 3H15.5a.5.5 0 1 0 0 1h2a.5.5 0 1 0 0-1h-.56L12.466 5.32ZM14.337 13H9.722l2.283-6.09L14.337 13Z"/></svg>
